X: 914
T: Higgin's Hornpipe
R: hornpipe
%S: s:2 b:16(4+4+4+4)
B: Francis O'Neill: "The Dance Music of Ireland" (1907) #914
Z: Frank Nordberg - http://www.musicaviva.com
F: http://www.musicaviva.com/abc/tunes/ireland/oneill-1001/0914/oneill-1001-0914-1.abc
M: C|
L: 1/8
K: D
"^A"[|] F>E \
|: D>FA>F "^1)"D>GB>G | F>Ad>e f>dA>F |\
[1,3 F>A (3def g>fe>d | (3efd (3cdB (3ABG (3FGE :|\
[2,4 F>Ad>g f>ed>c | d2f2"^fine"d2 :|
"^B"|: c>d \
| e>A (3AAA f>A (3AAA | g>A (3AAA f>A (3AAA \
| e>Af>A g>Af>A | (3efd (3cdB (3ABG (3FG"^->A2"E |]
%%begintext align
%% 1) O'Neill's Dance Music of Ireland has E here when after the B strain,
%% as do some other published versions,
%% and this may be treated as a variant if you like.
%%endtext
